X:1
T:Hereford (Heins), irr.
T:Hereford (Heins), irr.
T:Francis Donaldson Heins (1878-1949)
T:Public Domain Courtesy of the Cyber Hymnal™
C:Francis Donaldson Heins (1878-1949)
Z:Public Domain
Z:Courtesy of the Cyber Hymnal™
%%score ( 1 2 ) 3
L:1/8
Q:1/4=180
M:4/2
K:F
V:1 treble 
V:2 treble 
V:3 bass 
V:1
 C2 C2 | [CF]4 [CF]2 [CF]2 [DF]2 [DE]2 [DF]4 | [Fc]8 [EA]4 [DF]2 [DF]2 | [DG]4 [FB]2 [FB]2 | %4
 [FA]4 [EG]4 | F12 C4 | [CF]4 [CF]2 [CF]2 [DF]2 [DE]2 [DF]4 | [Ec]8 [EA]4 [EA]4 | %8
 [F=B]4 c2 d2 [Ec]4 [DB]4 | [CA]12 [Ec]2 [Ec]2 | [Ec]4 [EG]2 [EG]2 [EG]4 [EA]2 [EB]2 | %11
 [FB]4 [FA]8 [^F_e]4 | [Gd]4 [Ac]4 [GB]4 [^FA]2 [FA]2 | G12 [EA]4 | [DF]4 [DF]2 [DF]2 | %15
 F2 E2 [DF]4 | [Ec]8 [EA]4 [DF]2 [DF]2 | [DG]4 [DA]2 [DB]2 [EG]6 [CF]2 | [CF]12 |] %19
V:2
 C2 C2 | x16 | x16 | x8 | x8 | F12 C4 | x16 | x16 | x4 F4 x8 | x16 | x16 | x16 | x16 | G12 x4 | %14
 x8 | C4 x4 | x16 | x16 | x12 |] %19
V:3
 [C,C]2 [C,C]2 | [F,A,]4 [F,A,]2 [F,A,]2 [D,A,]2 [D,A,]2 [D,A,]4 | [A,,C]8 [C,C]4 [D,A,]2 [D,A,]2 | %3
 [B,,B,]4 [G,,D]2 [G,,D]2 | [C,C]4 [C,B,]4 | [F,A,]12 [C,C]4 | %6
 [F,A,]4 [F,A,]2 [F,A,]2 [D,A,]2 [D,A,]2 [D,A,]4 | [A,,A,]8 [C,A,]4 [C,A,]4 | %8
 [D,A,]4 [=B,,A,]4 [E,A,]4 [E,^G,]4 | [A,,A,]12 [A,,A,]2 [A,,A,]2 | %10
 [C,G,]4 [C,B,]2 [C,B,]2 [C,B,]4 [C,A,]2 [C,G,]2 | [F,D]4 [F,C]8 [A,,C]4 | %12
 [B,,D]4 [C,_E]4 [D,D]4 [D,C]2 [D,C]2 | [G,B,]12 [^C,A,]4 | [D,A,]4 [B,,B,]2 [B,,B,]2 | %15
 [F,A,]4 [D,A,]4 | [A,,A,]8 [C,A,]4 [D,A,]2 [D,A,]2 | [B,,G,]4 [G,,G,]2 [G,,G,]2 [C,B,]6 [F,A,]2 | %18
 [F,A,]12 |] %19

